X:48
T:All Praise to Jesus' Hallowed Name
%%stretchlast false
M:4/4
L:1/4
K:Ab clef=C1
"^V"[EGBe] "^iii"[CGce] "^I"[A,Ace] "^IV"[DFAf] | "^iii"[CGce] "^vi"[FAca] "^V"[EGeb]/ "^V7"[EGdb]/ "^iii+"[A,Aca]2 | "^V"[EBeg] [EGeb] "^I"[A,Aec'] | "^V/V"[B,F=db] "^V"[EGBg] "^II"[B,B=df]/ "^II7"[B,A=df]/ "^V"[EGe] | "^I"[A,Ace] "^I¹"[CAea] "^V"[EBeg] "^V¹"[G,Beb] | "^II"[B,B=df] "^iii"[CGce] "^VI"[F,F=Ac] "^II"[B,=DB] | "^♯iii"[B,DB] "^VI"[F,C=Af] "^VI¹"[=A,Fcf]/ "^VI7¹"[=A,Ecf]/ "^V/V"[B,=DBf] | "^V¹"[G,EBb] "^I"[A,Eca] "^II"[B,=DBf] "^iii"[CEGe]/ "^vi7²"[CEAf]/ | "^V¹"[G,EBg]/ [A,EBg]/ "^II"[B,=DBf] "^iii"[CEGe] "^V¹"[G,EBe] | "^I"[A,Ece]/ "^vi7¹"[A,Fce]/ "^iii¹"[EGce] |]
